X:2377
T:Keayrt va mee aeg (Eisht as nish) 
C:A.W. Moore collection. 
C:Traditional
O:Isle of Man
Z:Kiaull Vannin 377 
L:1/8
M:6/8 
Q:100 
K:C 
e3 e2e|d3 (e2d)|c3 c2A|(B3B2) z|A3 A2G|EEE E2E| 
c3 c2A|B3 c c d|e e2 e2d|c3 B2B |(A3A3)|A z z2|| 


